!!!COM: Beethoven, Ludwig van
!!!CDT: 1770///-1827///
!!!OTL: Piano Sonata no. 30 in E major
!!!ODT: 1820///
!!!OMD: Prestissimo
!!!OMV: Mvmt. 2
!!!OPS: Op. 109
**kern	**kern	**dynam
*staff2	*staff1	*staff1/2
*Ipiano	*Ipiano	*Ipiano
*clefF4	*clefG2	*clefG2
*k[f#]	*k[f#]	*k[f#]
*e:	*e:	*e:
*MM240	*MM240	*MM240
*M6/8	*M6/8	*M6/8
=1-	=1-	=1-
2.EE/ 2.E/	[4.g/	ff
.	(8g/L]	.
.	8e/	.
.	8b/J)	.
=2	=2	=2
2.DD/ 2.D/	[4.b\	.
.	(8b\L]	.
.	8g\	.
.	8ee\J)	.
=3	=3	=3
*	*^	*
4.CC/ 4.C/	(4ee/	4r	.
.	8ff#/	8r	.
4.AAA/ 4.AA/	4gg/	4.cc\	.
.	8ff#/)	.	.
=2	=2	=2	=2
2.BBB/ 2.BB/	(4.ee/	2.f#\	.
.	4dd#/)	.	.
.	8r	.	.
*	*v	*v	*
=	=	=
2.AAA/ 2.AA/	[4.cc\	.
.	(8cc\L]	.
.	8a\	.
.	8ee\J)	.
=3	=3	=3
2.GGG/ 2.GG/	[4.ee\	.
.	(8ee\L]	.
.	8b\	.
.	8bb\J)	.
=	=	=
*	*^	*
4.FFF#/ 4.FF#/	(8bb/L	4.ee\	.
.	8ccc/	.	.
.	8aa/J	.	.
4.BBB/ 4.BB/	8gg/L	4.dd#\	.
.	8ff#/	.	.
.	8bb/J)	.	.
*	*v	*v	*
=4	=4	=4
4EE/ 4E/	4ee\	.
8r	8r	.
4r	4r	.
8r	8r	.
=	=	=
*^	*	*
8r	2.BB\	[4.a/	p
8F#/L	.	.	.
8G/J	.	.	.
4.A/	.	8a/L]	.
.	.	8g/	.
.	.	8f#/J	.
=5	=5	=5	=5
8r	2.BB\	[4.b/	.
8G/L	.	.	.
8A/J	.	.	.
4.B/	.	8b/L]	.
.	.	8a/	.
.	.	8g/J	.
=	=	=	=
*	*	*^	*
4.A/	[2.BB\	(4cc/	4.f#\	<
.	.	[8ff#/	.	.
4.A#/	.	4ff#/]	4.g\	.
.	.	8ee/	.	.
=6	=6	=6	=6	=6
4.B/	2.BB\]	4dd#/	4.f#\	.
.	.	8ff#/	.	.
4.E/	.	4gg/	4.g\	>
.	.	8ee/)	.	.
*	*	*v	*v	*
=	=	=	=
8r	2.BB\	[4.a/	.
8F#/L	.	.	.
8G/J	.	.	.
4.A/	.	8a/L]	.
.	.	8g/	.
.	.	8f#/J	.
=7	=7	=7	=7
8r	2.BB\	[4.b/	.
8G/L	.	.	.
8A/J	.	.	.
4.B/	.	8b/L]	.
.	.	8a/	.
.	.	8g/J	.
=	=	=	=
*	*	*^	*
4.A/	[2.BB\	(4cc/	4.f#\	<
.	.	[8ff#/	.	.
4.A#/	.	4ff#/]	4.g\	.
.	.	8ee/	.	.
=8	=8	=8	=8	=8
4.B/	2.BB\]	4dd#/	4.f#\	.
.	.	8ff#/	.	.
4.E/	.	8ee/L	8g\	>
.	.	8f#/	8r	.
.	.	8g/J)	8r	.
=	=	=	=	=
8r	2.BB\	[4.a/	8r	.
8F#/L	.	.	8f#\L	.
8G/J	.	.	8e\J	.
4A/	.	8a/L]	4d#\	.
.	.	8g/	.	.
8r	.	8f#/J	8r	.
=9	=9	=9	=9	=9
8r	2.BB\	[4.b/	8r	.
8G/L	.	.	8g\L	.
8A/J	.	.	8f#\J	.
4B/	.	8b/L]	4e\	.
.	.	8a/	.	.
8r	.	8g/J	8r	.
=	=	=	=	=
4.A/	[2.BB\	(4cc/	8r	<
.	.	.	[4f#\	.
.	.	[8ff#/	.	.
4.A#/	.	4ff#/]	8f#\]	.
.	.	.	[4g\	.
.	.	8ee/	.	.
=10	=10	=10	=10	=10
4.B/	2.BB\]	4dd#/	8g\]	.
.	.	.	4f#\	.
.	.	[8ff#/	.	.
4.E/	.	8ff#/L]	4.g\	>
.	.	8gg/	.	.
.	.	8ee/J)	.	.
=	=	=	=	=
8r	2.BB\	[4.a/	8r	.
8F#/L	.	.	8f#\L	.
8G/J	.	.	8e\J	.
4A/	.	8a/L]	4d#\	.
.	.	8g/	.	.
8r	.	8f#/J	8r	.
=11	=11	=11	=11	=11
8r	2.BB\	[4.b/	8r	.
8G/L	.	.	8g\L	.
8A/J	.	.	8f#\J	.
4B/	.	8b/L]	4e\	.
.	.	8a/	.	.
8r	.	8g/J	8r	.
=	=	=	=	=
4.A/	2.BB\	(4cc/	8r	.
.	.	.	[4f#\	.
.	.	[8ff#/	.	.
4.A#/	.	4ff#/]	8f#\]	.
.	.	.	[4g\	.
.	.	8ee/	.	.
*v	*v	*	*	*
=12	=12	=12	=12
4.BB\ 4.B\	4dd#/	8g\]	.
.	.	4f#\	.
.	8ff#/	.	.
4EE/ 4E/	4ee/)	4g\	>
8r	8r	8r	.
*	*v	*v	*
*	*clefF4	*clefF4
=	=	=
4GG/	(4G\	p
8FF#/	8F#\	.
4DD#/	4D#\	.
8EE/	8E\	.
=13	=13	=13
4.BBB/	4.BB/)	.
4BBB/	4BB/	.
8BBB/	8BB/	.
=	=	=
(4.BBB/	(4.BB/	.
4AAA/	4AA/	.
8BBB/)	8BB/)	.
=14	=14	=14
(4.CC/	(4.C/	.
4.BBB/)	4.BB/)	.
*	*clefG2	*clefG2
=	=	=
4EE/	(4gg\	.
8r	8ff#\	.
4r	4dd#\	.
8r	8ee\)	.
=15	=15	=15
*	*^	*
4r	4.b/	4r	.
(8f#\	.	8a\	.
4e\	4b/	4g\	.
8d#\	8b/	8f#\	.
=	=	=	=
4e\	4.b/	4g\	.
8dn\	.	8f#\	.
4c#\	4a#/	4e\	.
8B\	8b/	8d\	.
=16	=16	=16	=16
4A#\	4.cc#/	4.c#\	.
8G\	.	.	.
4F#\	4.ddn/	[4.b\	>
8E#\)	.	.	.
=	=	=	=
*^	*	*	*
4.F#/	2.F#\	[4.cc#/	8b\L]	p
.	.	.	8f#\	.
.	.	.	8a#\J	.
8A#/L	.	8cc#/L]	[4.f#\	.
8B/	.	8dd/	.	.
8c#/J	.	8ee/J	.	.
=17	=17	=17	=17	=17
[4.B/	2.F#\	[4.dd/	8f#\L]	.
.	.	.	8f#\	.
.	.	.	8b\J	.
8B/L]	.	8dd/L]	[4.f#\	.
8c#/	.	8ee/	.	.
8d/J	.	8ff#/J	.	.
*v	*v	*	*	*
=	=	=	=
8F#\L	(4ee/	4.f#\]	<
8c#\	.	.	.
8d\J	8ff#/	.	.
8F#\L	4gg/	4a#\	.
8e\	.	.	.
8d\J	8ff#/	8b\	.
=18	=18	=18	=18
8F#\L	4ee/	8cc#\	.
8c#\	.	[4f#\	.
8B\J	8dd/	.	.
8F#\L	4cc#/	4.f#\]	.
8A#\	.	.	.
8B\J	8dd/)	.	.
=	=	=	=
*^	*	*	*
8F#/L	2.F#\	[4.cc#/	8cc#\L	.
8A#/	.	.	8a#\	.
8c#/J	.	.	[8f#\J	.
8A#/L	.	8cc#/L]	4.f#\]	.
8B/	.	8dd/	.	.
8c#/J	.	8ee/J	.	.
=19	=19	=19	=19	=19
8F#/L	2.F#\	[4.dd/	8dd\L	.
8B/	.	.	8b\	.
8d/J	.	.	[8f#\J	.
8B/L	.	8dd/L]	4.f#\_	.
8c#/	.	8ee/	.	.
8d/J	.	8ff#/J	.	.
*v	*v	*	*	*
*	*v	*v	*
=	=	=
8F#\L	4f#\] (4ee\	.
8c#\	.	.
8d\J	8f#\ 8ff#\	.
8F#\L	4g\ 4gg\	.
8e\	.	.
8d\J	8f#\ 8ff#\	.
=20	=20	=20
8F#\L	4g\ 4gg\	.
8e\	.	.
8f#\J	8a#\ 8aa#\	.
8F#\L	4b\ 4bb\	.
8g\	.	.
8f#\J	8a#\ 8aa#\	.
=	=	=
8F#/L	4b\ 4bb\	.
*clefG2	*	*
8g/	.	.
8a#/J	8cc#\ 8ccc#\	.
8b/L	4dd\ 4ddd\	.
8B/	.	.
8a#/J	8cc#\ 8ccc#\	.
=21	=21	=21
8b/L	4dd\ 4ddd\	.
8B/	.	.
8a#/J	8cc#\ 8ccc#\	.
4b/	4dd\ 4ddd\	.
*clefF4	*	*
8BB/	8ff#\ [8ddd\	.
=	=	=
8C#\L	4ee#\ 4ddd\])	p
8E#\	.	.
8G#\J	[8dd\	.
8C#\L	(8dd\L]	.
8D#\	8cc#\	.
8E#\J	8b\J)	.
=22	=22	=22
8C#\L	(4b\	.
8A\	.	.
8F#\J	8g#/	.
8Cn\L	4an/	.
8F#\	.	.
8D#\J	[8ff#\)	.
=	=	=
8BB\L	(4ff#\]	.
8D#\	.	.
8F#\J	8ccn\	.
8BB\L	4b\	.
8C#\	.	.
8D#\J	8a\)	.
=23	=23	=23
8BB\L	(4a/	.
8Gn\	.	.
8E\J	8f#/	.
8BB-\L	4gn/	.
8E\	.	.
8C#\J	[8ee\)	.
=	=	=
8AA/L	4ee\]	.
8C#/	.	.
8E/J	[8b-\	.
8AA/L	8b-/L]	.
8BBn/	8a/	.
8C#/J	8g/J	.
=24	=24	=24
8AA/L	(4g/	.
8Fn/	.	.
8D/J	8e/	.
8AA-/L	4fn/	.
8D/	.	.
8BB/J	[8ffn\)	.
=	=	=
*^	*	*
8GG/L	2.GG\	2.ff\_	<
8AAn/	.	.	.
8BB/J	.	.	.
8C/L	.	.	.
8D/	.	.	.
8BB/J	.	.	.
=25	=25	=25	=25
8GG/L	4.GG\	(4ff\]	.
8C/	.	.	.
8E/J	.	8ee\	.
8GG/L	4.FFn\	4dd\	.
8BB/	.	.	.
8D/J	.	8gg\)	p
=	=	=	=
8FF#/L	2.FF#\	4r	.
8GG/	.	.	.
8BB/J	.	8r	.
8D/L	.	(4gg\	.
8BB/	.	.	.
8GG/J	.	8dd\	.
=26	=26	=26	=26
8EE/L	2.EE\	4gg''\)	.
8GG/	.	.	.
8C/J	.	8r	.
8E/L	.	4gg\	.
8C/	.	.	.
8GG/J	.	8r	.
=	=	=	=
8FFn/L	2.FF\	4r	.
8GG/	.	.	.
8BB/J	.	8r	.
8D/L	.	(4ggg\	pp
8BB/	.	.	.
8GG/J	.	8ddd\	.
=27	=27	=27	=27
8EE/L	2.EE\	4ggg''\)	.
8GG/	.	.	.
8C/J	.	8r	.
8E/L	.	4ggg\	.
8C/	.	.	.
8GG/J	.	8r	.
*v	*v	*	*
=	=	=
*	*^	*
2.FFFn/ 2.FFn/	4r	(8B\L	<
.	.	8d\	.
.	8r	8cn\J	.
.	4g/	8B\L	.
.	.	8A#\	.
.	8d/	8B\J)	.
=28	=28	=28	=28
2.FFF#/ 2.FF#/	4f#/	8d\L	.
.	.	8B\	.
.	8r	8F#\J	.
.	4f#/	8c#\L	.
.	.	8A#\	.
.	8r	8F#\J	f
*	*v	*v	*
=	=	=
*^	*	*
8F#/L	4FF#\	4.r	.
8G#/	.	.	.
8A#/J	8r	.	.
4.r	4FF#\ 4F#\	8B/L	.
.	.	8c#/	.
.	8r	8d/J	.
*v	*v	*	*
=29	=29	=29
4FF#/ 4F#/	8e/L	.
.	8f#/	.
8r	8g#/J	.
4FF#/ 4F#/	8a#/L	.
.	8b/	.
8r	8cc#/J	.
=	=	=
4.DD/ 4.D/	8dd\L	.
.	8ee\	.
.	8ff#\J	.
4.CC#/ 4.C#/	8gg#\L	.
.	8aa\	.
.	8aa#\J	.
=30	=30	=30
4.BBB/ 4.BB/	8bb\L	.
.	8aa#\	.
.	8bb\J	.
4AAAn/ 4AAn/	8ccc#\L	.
.	8ddd\	.
8GGG/ 8GG/	8eee\J	.
=	=	=
8FFF#/ 8FF#/L	4ff#\ 4fff#\	.
8GG#/	.	.
8AA#/J	8r	.
8BB/L	4ff#\ 4fff#\	.
8C#/	.	.
8D/J	8r	.
=31	=31	=31
8E\L	4ff#\ 4fff#\	.
8F#\	.	.
8G#\J	8r	.
8A#\L	4ff#\ 4fff#\	.
8B\	.	.
8c#\J	8r	.
*clefG2	*	*
=	=	=
8d/L	4.dd\ 4.ddd\	.
8e/	.	.
8f#/J	.	.
8g#/L	4.ccc#\	.
8a/	.	.
8a#/J	.	.
=32	=32	=32
8b\L	4.bb\	.
8a#\	.	.
8b\J	.	.
8cc#\L	4aan\	.
8dd\	.	.
8ee\J	8ggn\	.
=	=	=
4f#/	4ff#\	.
8r	8r	.
*clefF4	*	*
4FF#/ 4F#/	4f#\ 4ff#\	.
8r	8r	.
=33	=33	=33
*	*^	*
2.BBB/ 2.BB/	4bb/	[4.b\	f
.	8r	.	.
.	4.r	(8b\L]	.
.	.	8f#\	.
.	.	8dd\J)	.
*	*v	*v	*
=	=	=
2.AAA/ 2.AA/	(8dd\L	.
.	8b\	.
.	8ff#\J)	.
.	(8ff#\L	.
.	8dd\	.
.	8bb\J)	.
=34	=34	=34
4.GGGn/ 4.GGn/	8bb\L	>
.	8eee\	.
.	8ddd\J	.
(4.EE/	8ccc#\L	.
.	8ddd\	.
.	8bb\J	.
=	=	=
4.FF#/	8aa#\L	.
.	8gg\	.
.	8ff#\J	.
4GG#/	8ee\L	.
.	8dd\	.
8AA#/)	8cc#\J	.
=35	=35	=35
8BBB/L	2.b\	p
8BB/	.	.
8BBB/J	.	.
8BB/L	.	.
8BBB/	.	.
8BB/J	.	.
=	=	=
8BBB/L	2.an/	.
8BB/	.	.
8BBB/J	.	.
8BB/L	.	.
8BBB/	.	.
8BB/J	.	.
=36	=36	=36
*	*^	*
8BBB/L	2.ee/	4.g\	.
8BB/	.	.	.
8BBB/J	.	.	.
8BB/L	.	4.e\	.
8BBB/	.	.	.
8BB/J	.	.	.
=	=	=	=
8BBB/L	2.dd/	2.f#\	.
8BB/	.	.	.
8BBB/J	.	.	.
8BB/L	.	.	.
8BBB/	.	.	.
8BB/J	.	.	.
=37	=37	=37	=37
8BBB/L	4.cc#/	2.e\	.
8BB/	.	.	.
8BBB/J	.	.	.
8BB/L	4.a#/	.	.
8BBB/	.	.	.
8BB/J	.	.	.
=	=	=	=
8BBB/L	2.b/	2.d\	.
8BB/	.	.	.
8BBB/J	.	.	.
8BB/L	.	.	.
8BBB/	.	.	.
8BB/J	.	.	.
=38	=38	=38	=38
8BBB/L	2.an/	4.cn\	.
8BB/	.	.	.
8BBB/J	.	.	.
8BB/L	.	4.A\	.
8BBB/	.	.	.
8BB/J	.	.	.
=	=	=	=
8BBB/L	2.g/	2.B\	.
8BB/	.	.	.
8BBB/J	.	.	.
8BB/L	.	.	.
8BBB/	.	.	.
8BB/J	.	.	.
=39	=39	=39	=39
8BBB/L	4.f#/	2.A\	.
8BB/	.	.	.
8BBB/J	.	.	.
8BB/L	4.d#/	.	.
8BBB/	.	.	.
8BB/J	.	.	.
=	=	=	=
8CC/L	2.e/	2.G\	.
8C/	.	.	.
8CC/J	.	.	.
8C/L	.	.	.
8CC/	.	.	.
8C/J	.	.	.
*	*v	*v	*
*	*clefF4	*clefF4
=40	=40	=40
*	*^	*
8CC/L	2.A/	4.Fn\	.
8C/	.	.	.
8CC/J	.	.	.
8C/L	.	4.D\	.
8CC/	.	.	.
8C/J	.	.	.
*	*v	*v	*
*	*clefG2	*clefG2
=	=	=
*	*^	*
8CC/L	2.g/	2.e\	.
8C/	.	.	.
8CC/J	.	.	.
8C/L	.	.	.
8CC/	.	.	.
8C/J	.	.	.
=41	=41	=41	=41
8CC/L	4.fn/	2.A-\	.
8C/	.	.	.
8CC/J	.	.	.
8C/L	4.d/	.	.
8CC/	.	.	.
8C/J	.	.	.
=	=	=	=
2.C/)	4.e/	4.G\	.
.	[4.cc/	4.e\	.
=42	=42	=42	=42
2.D\	4.cc/]	4.a-\	.
.	4.b/	4.fn\	.
=	=	=	=
*^	*	*	*
2.G/	2.E\	4r	4r	.
.	.	8r	8r	.
.	.	4.cc/	4.cc\	.
=43	=43	=43	=43	=43
2.A/	2.F#\	4.ee/	4.cc\	.
.	.	4.dd#/	4.b\	.
=	=	=	=	=
2.G#/	4r	2.e/	4.B\	.
.	8r	.	.	.
.	4.BB\	.	[4.dn\	.
=44	=44	=44	=44	=44
2.A/	4.AA\	2.fn/	4.d\]	.
.	4.C\	.	4.c\	.
=	=	=	=	=
4r	2.BB\	2.dd/	4r	p
8r	.	.	8r	.
4.G#/	.	.	4.fn\	.
=45	=45	=45	=45	=45
4.A/	2.C\	2.cc/	4.e\	.
4.E/	.	.	4.a\	.
*v	*v	*	*	*
=	=	=	=
4.D\	4.b/	4.d\ 4.fn\	.
4.Fn\	4.g#/	4.B\ 4.d\	.
=46	=46	=46	=46
2.D#\	2.c/ 2.a/	4.c\	.
.	.	(4.f#\	.
=	=	=	=
2.EE/	4.f#\	2.B/ 2.gn/)	.
.	[4.e\	.	.
=47	=47	=47	=47
2.FF#/	4.e\]	2.A/ 2.f#/	.
.	4.d#\	.	.
*	*v	*v	*
=	=	=
4.GG/	4.B/ 4.e/	.
4.EE/	4.B/ 4.g/	.
=48	=48	=48
2.FF#;/	2.A#;/ 2.f#;/	.
*clefG2	*	*
=	=	=
2.g/	2.b\ 2.ee\	pp
=49	=49	=49
2.f#/	2.a\ 2.dd#\ 2.ff#\	.
=	=	=
(4.e/	[4.b\ (4.gg\	.
4.g/)	4.b\] 4.ee\)	.
=50	=50	=50
2.f#/	2.a#\ 2.ff#\	.
=	=	=
4.g/	4.b\ (4.ee\	.
4.e/	4.b\ 4.gg\	.
=51	=51	=51
4f#/	4a#\ 4cc#\ 4ff#\)	pp
8r	8r	.
4r	4r	.
8r	8r	.
=	=	=
4f#/	4b\ 4dd\ 4ff#\	.
8r	8r	.
4r	4r	.
8r	8r	.
=52	=52	=52
4f#/	4a#\ 4cc#\ 4ff#\	.
8r	8r	.
4r	4r	.
8r	8r	.
*clefF4	*	*
=	=	=
2.EE/ 2.E/	[4.g/	ff
.	(8g/L]	.
.	8e/	.
.	8b/J)	.
=53	=53	=53
2.DD/ 2.D/	[4.b\	.
.	(8b\L]	.
.	8g\	.
.	8ee\J)	.
=	=	=
*	*^	*
4.CC/ 4.C/	4ee/	4r	.
.	8ff#/	8r	.
4.AAA/ 4.AA/	4gg/	4.ccn\	.
.	8ff#/	.	.
=54	=54	=54	=54
2.BBB/ 2.BB/	(4.ee/	2.f#\	.
.	4dd#/)	.	.
.	8r	.	.
*	*v	*v	*
=	=	=
2.AAA/ 2.AA/	[4.cc\	.
.	(8cc\L]	.
.	8a\	.
.	8ee\J)	.
=55	=55	=55
2.GGG/ 2.GG/	[4.ee\	.
.	(8ee\L]	.
.	8b\	.
.	8bb\J)	.
=	=	=
*	*^	*
4.FFF#/ 4.FF#/	(8bb/L	4.ee\	.
.	8ccc/	.	.
.	8aa/J	.	.
4.BBB/ 4.BB/	8gg/L	4.dd#\	.
.	8ff#/	.	.
.	8bb/J)	.	.
*	*v	*v	*
=56	=56	=56
[4.GG/	4.e\ 4.ee\	ff
(8GG/L]	[4.ee\ [4.eee\	.
8EE/	.	.
8BB/J)	.	.
=	=	=
[4.BB/	4.ee\] 4.eee\]	.
(8BB/L]	4ddn\ 4dddn\	.
8GG/	.	.
8E/J)	8r	.
=57	=57	=57
*^	*	*
(4E/	4r	4cc\ 4ccc\	.
8F#/	8r	8r	.
4G/	4.C\	4a\ 4aa\	.
8F#/)	.	8r	.
=	=	=	=
(4.E/	2.BB\	2.b\ 2.bb\	.
4.D#/)	.	.	.
*v	*v	*	*
=58	=58	=58
[4.C/	4.a\ 4.aa\	.
8C/L]	[4.aa\ [4.aaa\	.
8AA/	.	.
8E/J	.	.
=	=	=
[4.E\	4.aa\] 4.aaa\]	.
(8E\L]	4gg\ 4ggg\	.
8BB\	.	.
8B\J)	8r	.
=59	=59	=59
*^	*	*
8B/L	4r	4ff#\ 4fff#\	.
8c/	.	.	.
8B/J	8r	8r	.
8A/L	4BB\	4dd#\ 4ddd#\	.
8G/	.	.	.
8F#/J	8r	8r	.
=	=	=	=
8G/L	4E\	4ee\ 4eee\	.
8A/	.	.	.
8G/J	8r	8r	.
8Fn/L	4GG\	4b\ 4bb\	.
8E/	.	.	.
8D/J	8r	8r	.
=60	=60	=60	=60
4C/	4C\	(4ee\	p
8r	8r	8ddn\	.
4r	4r	4b\	.
8r	8r	8cc\)	.
*v	*v	*	*
=	=	=
*	*^	*
4r	4.g/	4r	.
(8d\	.	8fn\	.
4c\	4g/	4e'\	.
8B\)	8g/	8d\	.
=61	=61	=61	=61
4c\	(4.g/	4e'\	.
8B\	.	8d\	<
4A\	4f#/	4c\	.
8G\ 8B\	8g/	8d\	.
=	=	=	=
4.F#\ 4.c\	4.a/	4.e-\	>
4.G\ 4.B\	4.g/)	4.d\	.
*	*v	*v	*
=62	=62	=62
*	*clefF4	*clefF4
4EE/	(4En\	p
8DD/	8D\	.
4BBB/	4BB/	.
8CC/	8C/	.
=	=	=
4.GGG/	4.GG/)	.
4GGG/ 4GG/	4r	.
8GGG/ 8GG/	8r	.
*	*clefG2	*clefG2
=63	=63	=63
2.GGG/ 2.GG/	(4e/	.
.	8d/	.
.	4B/	.
.	8c#/)	.
=	=	=
2.FFF#/ 2.FF#/	4.A#/	.
.	4A#/	.
.	8A#/	.
=64	=64	=64
2.Fn\ 2.An\	(4ccn\	<
.	8b\	.
.	4g#/	.
.	8an/)	.
=	=	=
2.E\ 2.A\ 2.c\	4.a/	.
.	4a/	.
.	8a/	.
=65	=65	=65
*	*^	*
2.D#\ 2.F#\ 2.B\	(4aa/	[2.a\	.
.	8gg/	.	.
.	4ee/	.	.
.	8ff#/)	.	.
=	=	=	=
2.C\ 2.E\ 2.A\	4.ff#/	2.a\]	.
.	4ff#/	.	.
.	8ff#/	.	.
=66	=66	=66	=66
*^	*	*	*
4BB\ 4D#\ 4F#\ 4B\	4.r	[4.ff#/	8r	p
.	.	.	8b\L	.
*clefG2	*clefG2	*	*	*
8r	.	.	8dd#\J	.
4.B\	8d#/L	8ff#/L]	[4.b\	.
.	8e/	8gg/	.	.
.	8f#/J	8aa/J	.	.
=	=	=	=	=
4.e/	2.B\	[4.gg/	8b\L]	.
.	.	.	8b\	.
.	.	.	8ee\J	.
8e/L	.	8gg/L]	[4.b\	.
8f#/	.	8aa/	.	.
8g/J	.	8bb/J	.	.
*v	*v	*	*	*
=67	=67	=67	=67
8B/L	(4aa/	4.b\]	<
8f#/	.	.	.
8g/J	8bb/	.	.
8B/L	4ccc/	4dd#\	.
8a/	.	.	.
8g/J	8bb/	8ee\	.
=	=	=	=
8B/L	4aa/	8ff#\	.
8f#/	.	[4b\	.
8e/J	8gg/	.	.
8B/L	4ff#/	4.b\]	.
8d#/	.	.	.
8e/J	8gg/)	.	.
=68	=68	=68	=68
*^	*	*	*
8B/L	2.B\	[4.ff#/	8ff#\L	.
8d#/	.	.	8dd#\	.
8f#/J	.	.	[8b\J	.
8d#/L	.	8ff#/L]	4.b\]	.
8e/	.	8gg/	.	.
8f#/J	.	8aa/J	.	.
=	=	=	=	=
8B/L	2.B\	4.gg/	(8gg\L	.
8e/	.	.	8ee\	.
8g/J	.	.	[8b\J	.
8e/L	.	8gg/L)	4.b\]	.
8f#/	.	8aa/	.	.
8g/J	.	8bb/J	.	.
*v	*v	*	*	*
=69	=69	=69	=69
8B/L	4aa/	4.b\	.
8f#/	.	.	.
8g/J	8bb/	.	.
8B/L	4ccc/	4dd#\	.
8a/	.	.	.
8g/J	8bb/	8ee\	.
=	=	=	=
8B/L	4aa/	8ff#\	.
8f#/	.	[4b\	.
8e/J	8gg/	.	.
8B/L	4ff#/	4.b\_	.
8d#/	.	.	.
8e/J	8gg/	.	.
*	*v	*v	*
=70	=70	=70
8B/L	4b\] 4aa\	.
8f#/	.	.
8g/J	8b\ 8bb\	.
8B/L	4cc\ 4ccc\	.
8a/	.	.
8g/J	8b\ 8bb\	.
=	=	=
8B/L	4cc\ 4ccc\	.
8a/	.	.
8b/J	8dd#\ 8ddd#\	.
8B/L	4ee\ 4eee\	.
8cc/	.	.
8b/J	8dd#\ 8ddd#\	.
=71	=71	=71
8B/L	4ee\ 4eee\	.
8cc/	.	.
8dd#/J	8ff#\ 8fff#\	.
8ee/L	4gg\ 4ggg\	.
8e/	.	.
8dd#/J	8ff#\ 8fff#\	.
=	=	=
8ee/L	4gg\ 4ggg\	.
8e/	.	.
8dd#/J	8ff#\ 8fff#\	>
4ee\	4gg\ 4ggg\	.
*clefF4	*	*
8E\	8bb\ [8ggg\	.
=72	=72	=72
8F#\L	4aa#\ 4ggg\]	p
8A#\	.	.
8c#\J	[8gg\	.
8F#\L	(8gg\L]	.
8G#\	8ff#\	.
8A#\J	8ee\J)	.
=	=	=
8F#\L	(4ee\	.
8d\	.	.
8B\J	8cc#\	.
8Fn\L	4dd\)	.
8B\	.	.
8G#\J	[8fffn^\	.
=73	=73	=73
8E\L	4fff\]	.
8B\	.	.
8G#\J	[8ffn\	.
8E\L	(8ff\L]	.
8F#\	8ee\	.
8G#\J	8dd\J)	.
=	=	=
8E\L	(4dd\	.
8cn\	.	.
8An\J	8b\	.
8E-\L	4ccn\)	.
8A\	.	.
8F#\J	[8eee-^\	.
=74	=74	=74
8D\L	4eee-\]	.
8F#\	.	.
8A\J	[8ee-\	.
8D\L	(8ee-\L]	.
8En\	8dd\	.
8F#\J	8cc\J)	.
=	=	=
8D\L	(4cc\	.
8B-\	.	.
8G\J	8a\	.
8D-\L	4b-'\)	.
8G\	.	.
8E\J	[8bb-^\	.
=75	=75	=75
*^	*	*
8Cn/L	2.Cn\	2.bb-\_	.
8D/	.	.	.
8E/J	.	.	.
8Fn/L	.	.	.
8G/	.	.	.
8E/J	.	.	.
=	=	=	=
8C/L	4.C\	(4bb-\]	.
8Fn/	.	.	.
8A/J	.	8aa\	.
8C/L	4.BB-\	4gg\	.
8E/	.	.	.
8G/J	.	8ccc\)	.
=76	=76	=76	=76
8BB-/L	2.BB-\	4r	.
8C/	.	.	.
8E/J	.	8r	.
8G/L	.	(4ccc\	p
8E/	.	.	.
8C/J	.	8gg\	.
=	=	=	=
8AA/L	2.AA\	4ccc''\)	.
8C/	.	.	.
8Fn/J	.	8r	.
8A/L	.	4ccc\	.
8F/	.	.	.
8C/J	.	8r	.
=77	=77	=77	=77
8BB-/L	2.BB-\	4r	.
8C/	.	.	.
8E/J	.	8r	.
8G/L	.	(4cc\	pp
8E/	.	.	.
8C/J	.	8g/	.
=	=	=	=
8AA/L	2.AA\	4cc''\)	.
8C/	.	.	.
8Fn/J	.	8r	.
8A/L	.	4cc\	.
8F/	.	.	.
8C/J	.	8r	.
*v	*v	*	*
*	*clefF4	*clefF4
=78	=78	=78
*	*^	*
2.BBB-/ 2.BB-/	4r	8E\L	<
.	.	8G\	.
.	8r	8Fn\J	.
.	(4c/	8E\L	.
.	.	8D#\	.
.	8G/)	8E\J	.
=	=	=	=
*^	*	*	*
8BBn/L	2.BBBn\	4Bn/	8G\L	.
8AA/	.	.	8F#\	.
8GG/J	.	8r	8E\J	.
8FF#/L	.	4B/	8D#\L	.
8EE/	.	.	8E\	.
8DD#/J	.	8r	8F#\J	.
*v	*v	*	*	*
*	*v	*v	*
*	*clefG2	*clefG2
=79	=79	=79
4BBB/ 4BB/	8B/L	f
.	8c#/	.
8r	8d#/J	.
4BBB/ 4BB/	8e/L	.
.	8f#/	.
8r	8g/J	.
=	=	=
4BBB/ 4BB/	8a\L	.
.	8b\	.
8r	8cc#\J	.
4BBB/ 4BB/	8dd#\L	.
.	8ee\	.
8r	8ff#\J	.
=80	=80	=80
4.GGG/ 4.GG/	8gg\L	.
.	8aa\	.
.	8bb\J	.
4.FFF#/ 4.FF#/	8ccc#\L	.
.	8ddd\	.
.	8ddd#\J	.
=	=	=
4.EEE/ 4.EE/	8eee\L	.
.	8ddd#\	.
.	8eee\J	.
4DDn/	8fff#\L	.
.	8ggg\	.
8CC/	8aaa\J	.
=81	=81	=81
(8BBB/L	4b\ 4bb\	.
8CC#/	.	.
8DD#/J)	8r	.
8EE/L	4b\ 4bb\	.
8FF#/	.	.
8GG/J	8r	.
=	=	=
8AA/L	4b\ 4bb\	.
8BB/	.	.
8C#/J	8r	.
8D#\L	4b\ 4bb\	.
8E\	.	.
8F#\J	8r	.
=82	=82	=82
8G\L	4.g\ 4.gg\	.
8A\	.	.
8B\J	.	.
*clefG2	*	*
8c#/L	4.ff#\	.
8d/	.	.
8d#/J	.	.
=	=	=
8e/L	4.ee\	.
8d#/	.	.
8e/J	.	.
8f#/L	4ddn\	.
8g/	.	.
8a/J	8ccn\	.
*clefF4	*	*
=83	=83	=83
4BB''\ 4B''\	4b''\ 4bb''\	ff
8r	8r	.
4BB''\ 4B''\	4b''\ 4bb''\	.
8r	8r	.
=	=	=
4E''\ 4e''\	4ee''\ 4eee''\	.
8r	8r	.
4r	4r	.
8r	8r	.
=84	=84	=84
4BB/	4A/ 4d#/ 4f#/	p
8r	8r	.
4BB/	4A/ 4d#/ 4f#/	.
8r	8r	.
=	=	=
4E\	4G/ 4B/	.
8r	8r	.
4r	4r	.
8r	8r	.
=85	=85	=85
4.BB/	2.r	.
4.BB/	.	.
=	=	=
4.BB/	4.b\	p
4.BB/	4.b\	.
=86	=86	=86
4.GG/	4.b\ 4.ee\	.
4.FF#/	4.a\ 4.ee\	.
=	=	=
4.EE/	4.g\ 4.ee\ 4.gg\	<
4.DD/	4.g\ 4.ee\ 4.gg\	.
=87	=87	=87
4.CC/	4.ee\ 4.gg\ 4.ccc\	.
4.BBB/	4.ee\ 4.gg\ 4.ccc\	.
=	=	=
4.AAA/	4.ee\ 4.ccc\ 4.eee\	.
4.GGG/	4.ee\ 4.ccc\ 4.eee\	.
=88	=88	=88
4FFF#/ 4FF#/	4ee''\ 4aa''\ 4eee''\	f
8r	8r	.
4BBB''/ 4BB''/	4dd#''\ 4ff#''\ 4ddd#''\	.
8r	8r	.
=89	=89	=89
4EE''/ 4E''/	4ee''\ 4gg''\ 4eee''\	.
8r	8r	.
4r	4r	.
8r	8r	.
==	==	==
*-	*-	*-
!!!ENC: Craig Stuart Sapp
!!!END: 2005/08/28/
!!!ONB: measure numbers need to be fixed
